!!!COM: Music21
!!!OTL: Rumba da Ulla
!!!OMV: pezas_rumbas_rumba-da-ulla_rumba-da-ulla-partitura.musicxml
**kern
*I"Gaita
*I'Bag
*clefG^2
*k[]
*M2/4
*MM120
=1
!LO:TX:a:t=[quarter]=120
4r
4cc
=||
[2ee
=
8eeL]
16ddL
16eeJJ
8ffL
16eeL
16ddJJ
=
8eeL
16ccL
16ddJJ
8eeL
16ddL
16ccJJ
=
8ddL
16bL
16ccJJ
8ddL
16ccL
16bJJ
=
8.ccL
16ccJk
8ccL
8ccJ
=
16ddKL
8dd
16ddJk
8bL
8bJ
=
8.ccL
16ccJk
8ccL
8ccJ
!!linebreak:original
=
16ddKL
8dd
16ddJk
8bL
8bJ
=||
[2cc
=
8cc]
4r
16ccLL
16ddJJ
=||
8eeL
16ccL
16ddJJ
8eeL
16ffL
16ddJJ
=
8ee
4cc
16ccLL
16ddJJ
=
16eeKL
8ee
16ffJk
8ggL
16ffL
16eeJJ
=
4.dd
16eeLL
16ffJJ
=
16ggKL
8gg
16aaJk
8ggL
16ffL
16eeJJ
=
8ff
4ee
16bLL
16ccJJ
!!linebreak:original
=
16ddKL
8dd
16eeJk
8ddL
16bL
16ddJJ
=
4.cc
16ccLL
16ddJJ
=||
8eeL
16ccL
16ddJJ
8eeL
16ffL
16ddJJ
=
8ee
4cc
16ccLL
16ddJJ
=
16eeKL
8ee
16ffJk
8ggL
16ffL
16eeJJ
=
4.dd
16eeLL
16ffJJ
=
16ggKL
8gg
16aaJk
8ggL
16ffL
16eeJJ
=
8ff
4ee
16bLL
16ccJJ
!!linebreak:original
=
16ddKL
8dd
16eeJk
8ddL
16bL
16ddJJ
=
[2cc
=
4.cc]
8ee
=
8ee
4cc
8ee
=
8ee
4cc
8ee
=
8eeL
16ffL
16ggJJ
8aaL
16ffL
16aaJJ
=
4.gg
8dd
=
8dd
4b
8dd
=
8dd
4b
8dd
!!linebreak:original
=
8ddL
16eeL
16ffJJ
8ggL
16aaL
16ggJJ
=
8ff
4ee
8ee
=
8ee
4cc
8ee
=
8ee
4cc
8ee
=
8eeL
16ffL
16ggJJ
8aaL
16ffL
16aaJJ
=
4.gg
8ff
=
8ff
4dd
8ff
=
8ee
4cc
8cc
=
8bL
16ccL
16ddJJ
8eeL
16ffL
16eeJJ
!!linebreak:original
=
4.cc
8ff
=
8ff
4dd
8ff
=
8ee
4cc
8cc
=
8bL
16ccL
16ddJJ
8eeL
16ffL
16eeJJ
=
[2cc
=
8cc]
8r
4cc
=||
[2cc
=
8cc]
8r
4r
==
*-
